X:651
T:Erin's Hope
N:anon.
O:Ireland
B:Francis O'Neill: "The Dance Music of Ireland" (1907) no. 651
R:Reel
Z:Transcribed by Frank Nordberg - http://www.musicaviva.com
N:Music Aviva - The Internet center for free sheet music downloads
M:C|
L:1/8
K:G
dc"^segno" |:(3(BcB) AG (3(Bcd) AG|FADA FADc|[1(3(BcB) AG BdAG|FDEF GBdc:
|[2(3(BcB) AG (3(gfe) dc|BdAF G2||
|:f2|("^ ~"Ng2g)d BGBd|gfeg fgaf|[1("^ ~"Ng2g)d (3(Bcd) AG|FADA FAD3(fab) af gedc|BdAG FAdc "^segno" |]
